X: 1
T: THE LADIES' DELIGHT -- REEL
B: Ryan's Mammoth Collection of Fiddle Tunes
R: reel
M: C|
L: 1/8
Z: Contributed 20010830180949 by John Chambers jmchambers:rcn.net
K: D
|: vd2(fd) AFDF | d2(fd) egfe | d2(fd) AFDF | GEFD (EB,)B,2 \
|   d2(fd) AFDF | d2(fd) egfe | d2(fd) AFDF | dfeg (fd)d2 :|
|:((3vFED) (AD) BDAD | ((3FED) (AD) B,EEG | ((3FED) (AD) BDAD | GEFD (A,D)D2 \
|  ((3FED) (AD) BDAD | AD ((3FED) (B,E)EG | FAdf ecdB | egfe fdd2 :|
